svg/part/hat_2_line.svg

<?xml version="1.0" encoding="UTF-8"?>
<svg width="24px" height="24px" viewBox="0 0 24 24" version="1.1" xmlns="http://www.w3.org/2000/svg" xmlns:xlink="http://www.w3.org/1999/xlink">
    <title>hat_2_line</title>
    <g id="Icon" stroke="none" stroke-width="1" fill="none" fill-rule="evenodd">
        <g id="Part" transform="translate(-192.000000, -96.000000)">
            <g id="hat_2_line" transform="translate(192.000000, 96.000000)">
                <path d="M24,0 L24,24 L0,24 L0,0 L24,0 Z M12.5934901,23.257841 L12.5819402,23.2595131 L12.5108777,23.2950439 L12.4918791,23.2987469 L12.4918791,23.2987469 L12.4767152,23.2950439 L12.4056548,23.2595131 C12.3958229,23.2563662 12.3870493,23.2590235 12.3821421,23.2649074 L12.3780323,23.275831 L12.360941,23.7031097 L12.3658947,23.7234994 L12.3769048,23.7357139 L12.4804777,23.8096931 L12.4953491,23.8136134 L12.4953491,23.8136134 L12.5071152,23.8096931 L12.6106902,23.7357139 L12.6232938,23.7196733 L12.6232938,23.7196733 L12.6266527,23.7031097 L12.609561,23.275831 C12.6075724,23.2657013 12.6010112,23.2592993 12.5934901,23.257841 L12.5934901,23.257841 Z M12.8583906,23.1452862 L12.8445485,23.1473072 L12.6598443,23.2396597 L12.6498822,23.2499052 L12.6498822,23.2499052 L12.6471943,23.2611114 L12.6650943,23.6906389 L12.6699349,23.7034178 L12.6699349,23.7034178 L12.678386,23.7104931 L12.8793402,23.8032389 C12.8914285,23.8068999 12.9022333,23.8029875 12.9078286,23.7952264 L12.9118235,23.7811639 L12.8776777,23.1665331 C12.8752882,23.1545897 12.8674102,23.1470016 12.8583906,23.1452862 L12.8583906,23.1452862 Z M12.1430473,23.1473072 C12.1332178,23.1423925 12.1221763,23.1452606 12.1156365,23.1525954 L12.1099173,23.1665331 L12.0757714,23.7811639 C12.0751323,23.7926639 12.0828099,23.8018602 12.0926481,23.8045676 L12.108256,23.8032389 L12.3092106,23.7104931 L12.3186497,23.7024347 L12.3186497,23.7024347 L12.3225043,23.6906389 L12.340401,23.2611114 L12.337245,23.2485176 L12.337245,23.2485176 L12.3277531,23.2396597 L12.1430473,23.1473072 Z" id="MingCute" fill-rule="nonzero"></path>
                <path d="M15.4999959,4 C16.2796703,4 16.920442,4.59488554 16.9931291,5.35553954 L16.9999959,5.5 L16.9999959,5.58152 C19.8480342,6.73438229 21.8811083,9.47975017 21.994959,12.7134356 L21.9999959,13 L21.9999959,15 C21.9999959,15.5138 21.6107,15.9439 21.0995,15.995 C20.4765,16.0573 19.8681,16.1045 19.2707,16.1356 C16.4139,18.8881 14.161,20 11.9375,20 C10.7939,20 9.74049,19.7039 8.7224,19.3066 C8.22953,19.11425 7.713355,18.88425 7.1874175,18.6432375 L6.12653843,18.1544218 C5.94889333,18.0731361 5.77116667,17.9926 5.59386,17.9138 C4.95650615,17.6305692 4.54575586,17.5784036 4.26642022,17.5831564 L4.11382708,17.5914452 L4.11382708,17.5914452 L3.61203296,17.6528704 C3.53921333,17.6599444 3.46614667,17.6644333 3.39259,17.664 C3.021,17.6619 2.63051,17.5447 2.2929,17.2071 C2.09008,17.0043 1.98411,16.7241 2.00193,16.4379 C2.01721286,16.1925 2.12217245,15.9628224 2.2944279,15.7913117 L2.38606,15.7106 L6.00062,12.8993 C6.05352264,8.60992792 9.48220901,5.13341156 13.7527052,5.00374927 L14.0852,5.00045 C14.291,4.41762 14.8467,4 15.4999959,4 Z M7.50089,14.2662 L5.56275,15.7736 C5.82094,15.8488 6.1011,15.9506 6.40614,16.0862 L6.8390698,16.2808982 L6.8390698,16.2808982 L8.38791559,16.992449 C8.74949844,17.1554469 9.0984275,17.3064125 9.44948,17.4434 C10.3533,17.7961 11.1436,18 11.9375,18 C13.082,18 14.4158,17.5726 16.2304,16.1479 C13.5261813,16.0179625 10.9327926,15.4923414 8.07589408,14.4760324 L7.50089,14.2662 Z M17.4301,8.07652 C17.6118,8.52626 17.7714,9.00084 17.9031,9.49003 C18.2875,10.9176 18.4573,12.5532 18.2032,14.174 C18.7903,14.1616 19.3878,14.1315 20,14.0846 L20,13 C20,10.9617 18.9837,9.16087 17.4301,8.07652 Z M14,7 C10.9125,7 8.36961,9.33212 8.03689,12.3309 C10.9392,13.4319 13.5006,13.9982 16.1782,14.1427 C16.4464,12.7732 16.3246,11.3202 15.9719,10.01 C15.6278,8.73192 15.0886,7.67893 14.5747,7.02717 C14.3856,7.00919 14.1939,7 14,7 Z" id="形状" fill="#09244B"></path>
            </g>
        </g>
    </g>
</svg>

<svg xmlns="http://www.w3.org/2000/svg" width="24" height="24"><g fill="none" fill-rule="evenodd"><path d="M24 0v24H0V0h24ZM12.593 23.258l-.011.002-.071.035-.02.004-.014-.004-.071-.035c-.01-.004-.019-.001-.024.005l-.004.01-.017.428.005.02.01.013.104.074.015.004.012-.004.104-.074.012-.016.004-.017-.017-.427c-.002-.01-.009-.017-.017-.018Zm.265-.113-.013.002-.185.093-.01.01-.003.011.018.43.005.012.008.007.201.093c.012.004.023 0 .029-.008l.004-.014-.034-.614c-.003-.012-.01-.02-.02-.022Zm-.715.002a.023.023 0 0 0-.027.006l-.006.014-.034.614c0 .012.007.02.017.024l.015-.002.201-.093.01-.008.004-.011.017-.43-.003-.012-.01-.01-.184-.092Z"/><path fill="#09244B" d="M15.5 4a1.5 1.5 0 0 1 1.493 1.356L17 5.5v.082a8.004 8.004 0 0 1 4.995 7.131L22 13v2a1 1 0 0 1-.9.995c-.623.062-1.232.11-1.83.14C16.415 18.889 14.162 20 11.939 20c-1.144 0-2.198-.296-3.216-.693a29.532 29.532 0 0 1-1.535-.664l-1.06-.489a53.567 53.567 0 0 0-.533-.24c-.637-.283-1.048-.336-1.328-.33l-.152.007-.502.062a2.137 2.137 0 0 1-.22.011 1.52 1.52 0 0 1-1.1-.457 1 1 0 0 1 .002-1.416l.092-.08 3.615-2.812a8 8 0 0 1 7.752-7.895L14.085 5A1.5 1.5 0 0 1 15.5 4Zm-8 10.266-1.937 1.508c.258.075.538.177.843.312l.433.195 1.549.711c.361.163.71.314 1.061.451.904.353 1.695.557 2.489.557 1.144 0 2.478-.427 4.292-1.852-2.704-.13-5.297-.656-8.154-1.672l-.575-.21Zm9.93-6.19c.182.45.341.925.473 1.414.385 1.428.554 3.063.3 4.684a32.487 32.487 0 0 0 1.797-.09V13a5.993 5.993 0 0 0-2.57-4.923ZM14 7a6 6 0 0 0-5.963 5.33c2.902 1.102 5.464 1.668 8.141 1.813.268-1.37.147-2.823-.206-4.133-.344-1.278-.883-2.331-1.397-2.983A6.07 6.07 0 0 0 14 7Z"/></g></svg>
